X:1
T:Philippines National Anthem
T:Philippines National Anthem
T:Arranged: Jerry Bustillo
T:Julian Felipe
T:Philippines National Anthem | Julian Felipe | Jerry Bustillo - www.jerrybustillo.blogspot.com
C:Arranged: Jerry Bustillo
Z:Julian Felipe
Z:Philippines National Anthem | Julian Felipe | Jerry Bustillo - www.jerrybustillo.blogspot.com
%%score { 1 | 2 }
L:1/8
M:4/4
K:G
V:1 treble nm="Piano" snm="Pno."
V:2 bass 
V:1
 G2 F>A G2 D2 | (3ABc B>A B2 G2 | G2 F>A G2 D2 | (3ABc B>A G2 (3[Dd][Dd][Dd] | G2 F>A G2 D2 | %5
 (3ABc B>A B2 G2 | G2 F>A G2 D2 | (3ABc B>A G2 (3GFG || A>A D>D A>A D>D | B>c d>e d2 (3GFG | %10
 A>A D>D A>A D>D | (3BcB (3ABA G2 (3GFG | A>A D>D A>A D>D | B>c d>e d2 (3GFG | A>A D>D A>A D>D | %15
 (3BcB (3ABA G2 (3GEG ||[K:C] [EGc]2 [EGc]2 [GBd]2 [GBd]2 | %17
 (3:2:2[Ge]2 [Gd] (3:2:2[Gc]2 [Gd] [Ge]2 (3fed | [Ge]2 [Gc]2 [Gd]2 [GB]>[GB] | %19
 [EGc]2 (3[Ge][Ge][Ge] [Ge][Ge] (3GEG | [EGc]2 [EGc]2 [GBd]2 [GBd]2 | %21
 (3:2:2[Ge]2 [Gd] (3:2:2[Gc]2 [Gd] [Ge]2 (3fed | [Ge]2 [Gc]2 [Gd]2 [GB]>[GB] | [EGc]8 |] %24
V:2
 [G,B,]2 D,2 [G,B,]2 G,,2 | [F,A,]2 D,2 [G,B,]2 G,,2 | [G,B,]2 D,2 [G,B,]2 G,,2 | %3
 [C,G,]2 D,2 [G,B,]2 G,,2 | [G,B,]2 D,2 [G,B,]2 G,,2 | [F,A,]2 D,2 [G,B,]2 G,,2 | %6
 [G,B,]2 D,2 [G,B,]2 G,,2 | [C,G,]2 D,2 [G,B,]2 G,,2 || %8
 D,,>[D,F,] [D,F,]>[D,F,] D,,>[D,F,] [D,F,]>[D,F,] | G,,2 [B,D]>[CE] [B,D]D, G,,2 | %10
 D,,>[D,F,] [D,F,]>[D,F,] D,,>[D,F,] [D,F,]>[D,F,] | [D,G,]2 A,,2 [G,B,]2 G,,2 | %12
 D,,>[D,F,] [D,F,]>[D,F,] D,,>[D,F,] [D,F,]>[D,F,] | G,,2 [B,D]>[CE] [B,D]D, G,,2 | %14
 D,,>[D,F,] [D,F,]>[D,F,] D,,>[D,F,] [D,F,]>[D,F,] | [D,G,]2 A,,2 [G,B,]2 G,,2 || %16
[K:C] CB,A,G, F,E,D,C, | B,,C,D,E, F,G,A,B, | CC,E,C, G,F,E,D, | C,2 (3G,E,G, CB, (3G,E,G, | %20
 [C,C][B,,B,][A,,A,][G,,G,] [F,,F,][E,,E,][D,,D,][C,,C,] | %21
 [B,,,B,,][C,,C,][D,,D,][E,,E,] [F,,F,][G,,G,][A,,A,][B,,B,] | %22
 [C,C]C,E,C, [G,,G,][F,,F,][E,,E,][D,,D,] | [C,,C,]2 G,>E, [C,,C,]4 |] %24

